X:1
T:On to Victory
T:On to Victory
T:Elisha Albright Hoffman
T:Elisha Albright Hoffman, 1894
T:Public Domain Courtesy of the Cyber Hymnal™
T:Public Domain Courtesy of the Cyber Hymnal™
C:Elisha Albright Hoffman
Z:Public Domain
Z:Courtesy of the Cyber Hymnal™
%%score ( 1 2 ) ( 3 4 )
L:1/8
Q:1/4=99
M:4/4
K:Ab
V:1 treble 
V:2 treble 
V:3 bass 
V:4 bass 
V:1
 [Ec]>[DB] | [CA]>[CE] [CA]>[DB] [Ec]2 [Ec]>[DB] | [CA]>[CE] [CA]>[DB] [Ec]2 [Ec]>[Fd] | %3
w: 1.~Chris- tian,|gird the ar- mor on, There’s a|vic- tory to be won, For the|
w: 2.~Let His|ban- ner be un- furled, Till it|waves o’er all the world, Sea to|
w: 3.~When the|bat- tle shall be done, And the|vic- to- ry be won, Con- flict|
w: 4.~That will|be an hour of joy, Praise shall|then our tongues em- ploy More and|
 (B4 G2) [DB]>[Ec] | ([CA]4 [Ec]2) [Ec]>[DB] | [CA]>[CE] [CA]>[DB] [Ec]2 [Ec]>[DB] | %6
w: Lord, * for the|Lord! * Take the|hel- met, sword and shield, Forth un-|
w: sea, * shore to|shore, * Till the|na- tions all shall own He is|
w: past, * con- flict|past, * In the|new Je- ru- sa- lem We shall|
w: more, * more and|more; * We shall|stand be- fore the King And the|
 [CA]>[CE] [CA]>[DB] [Ec]2 [Ec]>[Fd] | (B4 d2) [Ec]>[DB] | [CA]6 || %9
w: to the bat- tle- field At His|word, * at His|word.|
w: King and He a- lone Ev- er-|more, * ev- er-|more.|
w: wear a di- a- dem At the|last, * at the|last.|
w: song of tri- umph sing Ev- er-|more, * ev- er-|more.|
"^Refrain" [ce]>[Bd] [Ac]4- [Ac]>[Fd][Ec]>[DB] | [CA]6 [EB]>[EA] | %11
w: ||
w: On we’ll march * to vic- to-|ry, Je- sus|
w: ||
w: ||
 [EG]>[EG] [EG]>[EG] [EG]2 [Gc]>[GB] | [EA]>[CE] [CA]>[DB] [Ec]2 [ce]>[Bd] | %13
w: ||
w: will our lead- er be, Je- sus|will our lead- er be; On we’ll|
w: ||
w: ||
 [Ac]4- [Ac]>[Fd] [Ec]>[DB] | [CA]6 [EB]>[EA] | [EG]>[EG] [EG]>[EG] [EG]>[EG] [Gc]>[GB] | [EA]6 |] %17
w: ||||
w: march * to vic- to-|ry, To a|fi- nal and a glor- ious vic- to-|ry.|
w: ||||
w: ||||
V:2
 x2 | x8 | x8 | E6 x2 | x8 | x8 | x8 | E6 x2 | x6 || x10 | x8 | x8 | x8 | x8 | x8 | x8 | x6 |] %17
V:3
 [A,,A,]>[A,,A,] | [A,,A,]>[A,,A,] [A,,A,]>[A,,A,] [A,,A,]2 [A,,A,]>[A,,A,] | %2
w: ~ ~|~ ~ ~ ~ ~ ~ ~|
 [A,,A,]>[A,,A,] [A,,A,]>[A,,A,] [A,,A,]2 [A,,A,]>[A,,A,] | (G,4 B,2) [E,G,]>[E,G,] | %4
w: ~ ~ ~ ~ ~ ~ ~|~ * ~ ~|
 (E,4 A,2) [A,,A,]>[A,,A,] | [A,,A,]>[A,,A,] [A,,A,]>[A,,A,] [A,,A,]2 [A,,A,]>[A,,A,] | %6
w: ~ * ~ ~|~ ~ ~ ~ ~ ~ ~|
 [A,,A,]>[A,,A,] [A,,A,]>[A,,A,] [A,,A,]2 [A,,A,]>[A,,A,] | (G,4 B,2) [E,G,]>[E,G,] | [A,,E,]6 || %9
w: ~ ~ ~ ~ ~ ~ ~|~ * ~ ~|~|
 z4 [A,,A,]>[A,,A,] [A,,A,]2 z2 | z3/2 [A,,A,]/ [A,,A,]>[A,,A,] [A,,A,]2 [E,D]>[E,C] | %11
w: On we’ll march|to vic- to- ry ~ ~|
 [E,B,]>[E,B,] [E,B,]>[E,B,] [E,B,]2 [E,E]>[E,E] | [A,,C]>[A,,A,] [A,,A,]>[A,,A,] [A,,A,]2 z2 | %13
w: ~ ~ ~ ~ ~ ~ ~|~ ~ ~ ~ ~|
 z2 [A,,A,]>[A,,A,] [A,,A,]2 z2 | z3/2 [A,,A,]/ [A,,A,]>[A,,A,] [A,,A,]2 [E,D]>[E,D] | %15
w: On we’ll march|to vic- to- ry * *|
 [E,B,]>[E,B,] [E,B,]>[E,B,] [E,B,]>[E,B,] [E,E]>[E,D] | [A,,C]6 |] %17
w: ||
V:4
 x2 | x8 | x8 | E,6 x2 | A,,6 x2 | x8 | x8 | E,6 x2 | x6 || x10 | x8 | x8 | x8 | x8 | x8 | x8 | %16
 x6 |] %17

